X:173
T:Silvery Moon 
R:
C:Bruce Osborne - Apr. 2005
Z:abc by bosborne@kos.net
M:3/4
L:1/8
K:Gmaj
B,C|DG FG BA|G B3 Bc|dB Gd BG|F4 AB|\
cA FA DF|A3 d ^cd|fg fe dc|B4 B,C|\
DG FG BA|G B3 Bc|dB Gd BG|F4 AB|\
cA FA DF|A3 d ^cd|fg fd AF|G4||\
B,C|DG FG ED|B, D3 B,C|DG FG DB,|A,4 A,B,|\
CB, CD FG|F3 d ^cd|fg fe dc|B4 B,C|\
DG FG ED|B, D3 B,C|DG FG DB,|A,4 A,B,|\
CB, CD FG|F3 d ^cd|fg fd AF|G4||
